X: 21182
T: JOHNNY LAD -- Reel
R: reel
B: K\"ohler's Violin Repository, v.2, 1885 p.118 #2
F: http://www.archive.org/details/klersviolinrepos02rugg
Z: 2012 John Chambers <jc:trillian.mit.edu>
M: C|
L: 1/8
K: Em
   uB | (ef)ge (af)df | (ef)ge f2ed | (ef)ge (af)df | (ed)Bd e2e :|
|: ud | B2BG A2Ad | (BA)Bd (ef)gd | B2BG A2Ad | (BA)Bd e2"^Fine"e :|

%%sep 2 1 500

